lib/brands/logos/instagram.svg

<svg xmlns="http://www.w3.org/2000/svg" fill="none" aria-hidden="true" viewBox="0 0 197 69"><g id="Instagram"><path id="Vector" fill="#262626" d="M14.5576 8.11522C10.7294 9.71856 6.51608 14.2486 5.18567 19.9346C3.50127 27.1389 10.5106 30.1856 11.0855 29.1865C11.7621 28.0127 9.82957 27.6157 9.43139 23.8778C8.91719 19.0501 11.1616 13.6552 13.9864 11.2883C14.5115 10.8488 14.4865 11.4608 14.4865 12.5928L14.3747 36.585C14.3747 41.7176 14.1627 43.3386 13.782 44.9399C13.3962 46.5628 12.7761 47.6597 13.2461 48.0818C13.7712 48.5544 16.0132 47.4303 17.3106 45.619C18.8669 43.4466 19.4113 40.8378 19.5094 38.0045C19.6276 34.5891 19.6228 29.1697 19.6276 26.0781L19.5803 9.95014C19.5567 8.72607 16.1614 7.44174 14.5593 8.11285L14.5576 8.11522ZM150.584 32.1342C150.46 34.8025 149.87 36.8879 149.137 38.3592C147.718 41.2072 144.773 42.0914 143.523 37.9976C142.841 35.766 142.809 32.0389 143.299 28.9246C143.795 25.7522 145.19 23.3561 147.496 23.5723C149.77 23.7859 150.835 26.7161 150.584 32.1344L150.584 32.1342ZM112.244 48.6896C112.214 53.1232 111.516 57.0104 110.02 58.1418C107.898 59.7428 105.045 58.5419 105.636 55.3066C106.158 52.4438 108.63 49.5202 112.251 45.9479L112.245 48.6919L112.244 48.6896ZM111.665 32.1091C111.535 34.5393 110.905 36.9808 110.218 38.3604C108.799 41.2083 105.833 42.0987 104.604 37.9988C103.763 35.1974 103.964 31.5717 104.38 29.2874C104.92 26.3234 106.228 23.5735 108.577 23.5735C110.861 23.5735 111.987 26.079 111.665 32.1093L111.665 32.1091ZM89.456 32.072C89.3166 34.6459 88.8147 36.7977 88.0089 38.3601C86.5508 41.1887 83.6667 42.0855 82.3947 37.9986C81.4778 35.0514 81.7897 31.033 82.1714 28.8622C82.7376 25.6409 84.1549 23.357 86.3682 23.5737C88.6414 23.7958 89.7464 26.7173 89.4562 32.0725L89.456 32.072ZM191.235 35.0783C190.679 35.0783 190.425 35.6511 190.216 36.6152C189.488 39.9677 188.723 40.727 187.735 40.727C186.633 40.727 185.643 39.0669 185.388 35.744C185.188 33.1311 185.22 28.3206 185.476 23.5357C185.528 22.5526 185.257 21.5797 182.62 20.622C181.485 20.2099 179.836 19.6035 179.015 21.5857C176.694 27.1861 175.787 31.6327 175.573 33.4388C175.562 33.5324 175.447 33.5513 175.427 33.3329C175.291 31.8863 174.987 29.2574 174.949 23.7337C174.942 22.6561 174.713 21.7388 173.524 20.9878C172.752 20.5005 170.408 19.6385 169.564 20.6641C168.833 21.5029 167.987 23.7597 167.107 26.4347L165.894 30.0797L165.912 21.9878C165.915 21.1482 165.34 20.8687 165.166 20.8181C164.385 20.5913 162.845 20.2122 162.189 20.2122C161.382 20.2122 161.185 20.6631 161.185 21.3198L161.057 34.3845L161.06 35.1383C160.613 37.5931 159.167 40.9255 157.594 40.9255C156.019 40.9255 155.278 39.5324 155.278 33.1652C155.278 29.4509 155.389 27.8357 155.444 25.1496L155.534 22.1443C155.522 21.3172 154.093 20.9006 153.427 20.7465C152.758 20.5913 152.178 20.531 151.724 20.5568C151.082 20.5929 150.628 21.0143 150.628 21.5934L150.631 22.4947C149.804 21.195 148.474 20.2909 147.589 20.0289C145.206 19.3211 142.719 19.9485 140.843 22.5732C139.352 24.6588 138.453 27.0212 138.102 30.4153C137.843 32.8965 137.927 35.4127 138.387 37.5406C137.832 39.9415 136.801 40.9255 135.672 40.9255C134.033 40.9255 132.845 38.2505 132.983 33.6236C133.074 30.5804 133.683 28.4447 134.349 25.3552C134.632 24.038 134.402 23.3485 133.824 22.6878C133.293 22.0817 132.163 21.7721 130.538 22.153C129.381 22.4248 127.726 22.7166 126.212 22.9409C126.212 22.9409 126.303 22.5765 126.378 21.9337C126.772 18.564 123.11 18.8372 121.942 19.9133C121.244 20.5561 120.769 21.3139 120.589 22.6767C120.303 24.8394 122.067 25.8593 122.067 25.8593C121.488 28.5059 120.07 31.9687 118.605 34.4703C117.821 35.8106 117.221 36.804 116.446 37.8599L116.44 36.6824L116.529 25.1506L116.619 22.1769C116.611 21.5719 116.257 21.3437 115.523 21.0544C114.873 20.7987 114.105 20.6215 113.309 20.5598C112.303 20.4814 111.697 21.0147 111.713 21.6454C111.716 21.7645 111.716 22.4957 111.716 22.4957C110.889 21.196 109.559 20.2919 108.675 20.0298C106.291 19.3223 103.804 19.9495 101.928 22.5741C100.437 24.6598 99.461 27.5867 99.1869 30.3902C98.9269 33.0033 98.9766 35.2239 99.3279 37.0942C98.9489 38.9674 97.8593 40.9262 96.6274 40.9262C95.0525 40.9262 94.1561 39.5332 94.1561 33.1659C94.1561 29.4516 94.2677 27.8364 94.3225 25.1503L94.4123 22.145C94.4005 21.3179 92.9708 20.9013 92.3054 20.747C91.6092 20.5863 91.0057 20.5268 90.5466 20.5608C89.9376 20.6062 89.5092 21.1516 89.5092 21.558V22.4952C88.6821 21.1955 87.3524 20.2914 86.4674 20.0293C84.084 19.3218 81.6108 19.9592 79.7209 22.5736C78.4885 24.2786 77.4908 26.1686 76.9797 30.3529C76.8313 31.5621 76.7658 32.6942 76.7741 33.7526C76.2826 36.758 74.1124 40.2218 72.3368 40.2218C71.2977 40.2218 70.3083 38.2065 70.3083 33.9119C70.3083 28.1909 70.6623 20.0461 70.7223 19.2609L73.3997 19.2176C74.5186 19.2053 75.5321 19.2318 77.0222 19.1555C77.7697 19.1177 78.4897 16.4346 77.7184 16.1024C77.3687 15.9521 74.8974 15.8205 73.9176 15.7999C73.0939 15.781 70.8008 15.6116 70.8008 15.6116L71.0543 9.6342C71.095 9.15828 70.4791 8.91346 70.1256 8.76459C69.2669 8.40138 68.4987 8.22746 67.5877 8.03984C66.3296 7.78037 65.7587 8.03416 65.6471 9.09613C65.4817 10.7077 65.3919 15.4282 65.3919 15.4282C64.4687 15.4282 61.3147 15.2477 60.3912 15.2477C59.5334 15.2477 58.6071 18.9381 59.7933 18.9837L65.114 19.1302L65.0467 30.7534C64.1787 35.277 61.1216 37.7207 61.1216 37.7207C61.7781 34.7281 60.437 32.4808 58.0213 30.5783C57.1313 29.8772 55.3746 28.5501 53.4086 27.0959C53.4086 27.0959 54.5471 25.9739 55.559 23.7167C56.2743 22.1176 56.3052 20.2879 54.5495 19.8842C51.6481 19.2171 49.2562 21.3477 48.5425 23.6226C47.9896 25.3848 48.2845 26.6922 49.3672 28.051C49.4464 28.1503 49.532 28.2519 49.6206 28.3535C48.9655 29.6158 48.0657 31.3153 47.3041 32.633C45.1891 36.2922 43.5912 39.1865 42.3841 39.1865C41.4188 39.1865 41.4318 36.248 41.4318 33.4967C41.4318 31.1249 41.6067 27.559 41.7468 23.8672C41.7931 22.6462 41.1825 21.9507 40.1588 21.3205C39.5374 20.9377 38.2098 20.1853 37.4413 20.1853C36.2905 20.1853 32.9716 20.3417 29.8353 29.414C29.44 30.5578 28.6632 32.641 28.6632 32.641L28.7301 21.7315C28.7301 21.4758 28.594 21.2281 28.2818 21.0592C27.7534 20.7723 26.3441 20.1853 25.087 20.1853C24.4891 20.1853 24.1904 20.4634 24.1904 21.0178L24.081 38.0862C24.081 39.3831 24.1148 40.8983 24.2431 41.5576C24.3714 42.2169 24.5777 42.759 24.8339 43.0794C25.09 43.3998 25.3859 43.6437 25.8741 43.7444C26.3285 43.838 28.8161 44.1574 28.9456 43.2068C29.1006 42.0678 29.1063 40.835 30.4131 36.239C32.4467 29.0837 35.0983 25.5922 36.3449 24.3523C36.5627 24.1356 36.8116 24.1226 36.7997 24.4776L36.4335 33.2965C36.0955 42.2089 37.7171 43.8609 40.0341 43.8609C41.8064 43.8609 44.3053 42.0997 46.9815 37.6413L51.4378 30.1752L54.0709 32.5997C56.1866 34.6076 56.8811 36.5158 56.4203 38.3254C56.0677 39.7092 54.7402 41.1374 52.3778 39.7491C51.6892 39.3451 51.3952 39.0324 50.7029 38.5763C50.3309 38.3315 49.7628 38.2583 49.4221 38.5149C48.5376 39.1818 48.0316 40.0301 47.7426 41.0805C47.4614 42.1025 48.4851 42.6425 49.5461 43.1127C50.4597 43.5192 52.4232 43.8878 53.6754 43.9299C58.5544 44.0953 62.4627 41.5739 65.1835 35.0766C65.6703 40.688 67.7434 43.8635 71.3445 43.8635C73.7525 43.8635 76.1661 40.7513 77.2214 37.6897C77.5244 38.9374 77.9729 40.023 78.5523 40.9406C81.3273 45.3373 86.7106 44.3907 89.4146 40.6575C90.2507 39.5039 90.3781 39.0894 90.3781 39.0894C90.7727 42.6146 93.6115 43.8462 95.2365 43.8462C97.057 43.8462 98.9366 42.9856 100.254 40.0197C100.408 40.3416 100.577 40.649 100.761 40.9404C103.536 45.3371 108.919 44.3904 111.623 40.6573C111.738 40.5003 111.849 40.3414 111.958 40.1806L112.037 42.4964L109.548 44.7796C105.38 48.6031 102.211 51.5042 101.978 54.8825C101.679 59.1903 105.172 60.7908 107.815 61.0005C110.622 61.2233 113.026 59.6724 114.503 57.5031C115.803 55.5933 116.653 51.4825 116.59 47.4227L116.492 41.5141C117.957 39.8127 119.608 37.663 121.127 35.1464C122.783 32.4038 124.558 28.7207 125.467 25.8543C125.467 25.8543 127.009 25.8675 128.655 25.7598C129.181 25.7255 129.332 25.833 129.235 26.2187C129.117 26.6849 127.156 34.2507 128.946 39.2912C130.171 42.7413 132.934 43.8519 134.571 43.8519C136.489 43.8519 138.323 42.404 139.305 40.2541C139.424 40.4937 139.548 40.7258 139.683 40.9399C142.458 45.3366 147.822 44.3845 150.545 40.6568C151.159 39.8155 151.509 39.0887 151.509 39.0887C152.093 42.7372 154.93 43.8644 156.555 43.8644C158.248 43.8644 159.855 43.1704 161.159 40.0859C161.213 41.4439 161.299 42.5543 161.434 42.9043C161.517 43.1184 161.998 43.3871 162.348 43.5171C163.896 44.0913 165.476 43.8195 166.058 43.7014C166.462 43.6194 166.778 43.2949 166.821 42.456C166.934 40.2541 166.865 36.5545 167.53 33.8048C168.65 29.1905 169.696 27.4009 170.191 26.5148C170.469 26.0185 170.782 25.9363 170.794 26.4618C170.817 27.5252 170.87 30.6468 171.304 34.842C171.623 37.927 172.048 39.7506 172.376 40.3276C173.31 41.978 174.463 42.0562 175.401 42.0562C175.998 42.0562 177.248 41.8908 177.136 40.8409C177.082 40.329 177.177 37.1654 178.282 32.6193C179.003 29.6506 180.206 26.9682 180.639 25.9876C180.799 25.626 180.874 25.911 180.871 25.9663C180.78 28.0108 180.575 34.6978 181.407 38.3552C182.537 43.3098 185.803 43.8642 186.941 43.8642C189.37 43.8642 191.357 42.0163 192.027 37.1531C192.188 35.9826 191.949 35.079 191.234 35.079"/></g></svg>

<svg xmlns="http://www.w3.org/2000/svg" fill="none" aria-hidden="true" viewBox="0 0 197 69"><path fill="#262626" d="M14.558 8.115c-3.829 1.604-8.042 6.134-9.372 11.82-1.685 7.204 5.325 10.25 5.9 9.252.676-1.174-1.256-1.571-1.655-5.31-.514-4.827 1.73-10.222 4.555-12.589.525-.44.5.173.5 1.305l-.111 23.992c0 5.133-.212 6.754-.593 8.355-.386 1.623-1.006 2.72-.536 3.142.525.472 2.767-.652 4.065-2.463 1.556-2.172 2.1-4.781 2.198-7.614.119-3.416.114-8.835.119-11.927L19.58 9.95c-.023-1.224-3.419-2.508-5.02-1.837l-.002.002Zm136.026 24.02c-.124 2.668-.714 4.753-1.447 6.224-1.419 2.848-4.364 3.732-5.614-.361-.682-2.232-.714-5.96-.224-9.073.496-3.173 1.891-5.569 4.197-5.353 2.274.214 3.339 3.144 3.088 8.562Zm-38.34 16.555c-.03 4.433-.728 8.32-2.224 9.452-2.122 1.6-4.975.4-4.384-2.835.522-2.863 2.994-5.787 6.615-9.36l-.006 2.745-.001-.002Zm-.579-16.58c-.13 2.43-.76 4.87-1.447 6.25-1.419 2.848-4.385 3.739-5.614-.361-.841-2.802-.64-6.427-.224-8.712.54-2.964 1.848-5.713 4.197-5.713 2.284 0 3.41 2.505 3.088 8.535Zm-22.209-.038c-.14 2.574-.641 4.726-1.447 6.288-1.458 2.829-4.342 3.726-5.614-.361-.917-2.948-.605-6.966-.224-9.137.567-3.221 1.984-5.505 4.197-5.288 2.273.222 3.378 3.143 3.088 8.498Zm101.779 3.006c-.556 0-.81.573-1.019 1.537-.728 3.353-1.493 4.112-2.481 4.112-1.102 0-2.092-1.66-2.347-4.983-.2-2.613-.168-7.423.088-12.208.052-.983-.219-1.956-2.856-2.914-1.135-.412-2.784-1.018-3.605.964-2.321 5.6-3.228 10.047-3.442 11.853-.011.093-.126.112-.146-.106-.136-1.447-.44-4.076-.478-9.6-.007-1.077-.236-1.994-1.425-2.745-.772-.488-3.116-1.35-3.96-.324-.731.839-1.577 3.096-2.457 5.77l-1.213 3.646.018-8.092c.003-.84-.572-1.12-.746-1.17-.781-.227-2.321-.606-2.977-.606-.807 0-1.004.451-1.004 1.108l-.128 13.065.003.753c-.447 2.455-1.893 5.788-3.466 5.788-1.575 0-2.316-1.394-2.316-7.76 0-3.715.111-5.33.166-8.016l.09-3.006c-.012-.827-1.441-1.243-2.107-1.397-.669-.156-1.249-.216-1.703-.19-.642.036-1.096.457-1.096 1.036l.003.902c-.827-1.3-2.157-2.204-3.042-2.466-2.383-.708-4.87-.08-6.746 2.544-1.491 2.086-2.39 4.448-2.741 7.842-.259 2.482-.175 4.998.285 7.126-.555 2.4-1.586 3.385-2.715 3.385-1.639 0-2.827-2.675-2.689-7.302.091-3.044.7-5.18 1.366-8.269.283-1.317.053-2.006-.525-2.667-.531-.606-1.661-.916-3.286-.535-1.157.272-2.812.564-4.326.788 0 0 .091-.364.166-1.007.394-3.37-3.268-3.097-4.436-2.02-.698.642-1.173 1.4-1.353 2.763-.286 2.162 1.478 3.182 1.478 3.182-.579 2.647-1.997 6.11-3.462 8.611-.784 1.34-1.384 2.334-2.159 3.39l-.006-1.178.089-11.531.09-2.974c-.008-.605-.362-.833-1.096-1.123a7.79 7.79 0 0 0-2.214-.494c-1.006-.079-1.612.455-1.596 1.085.003.12.003.85.003.85-.827-1.299-2.157-2.203-3.041-2.465-2.384-.708-4.871-.08-6.747 2.544-1.491 2.086-2.467 5.013-2.741 7.816-.26 2.613-.21 4.834.14 6.704-.378 1.873-1.468 3.832-2.7 3.832-1.575 0-2.47-1.393-2.47-7.76 0-3.714.11-5.33.166-8.016l.09-3.005c-.013-.827-1.442-1.244-2.108-1.398-.696-.16-1.3-.22-1.758-.186-.61.045-1.038.59-1.038.997v.937c-.827-1.3-2.157-2.204-3.042-2.466-2.383-.707-4.856-.07-6.746 2.545-1.233 1.705-2.23 3.595-2.741 7.779a26.244 26.244 0 0 0-.206 3.4c-.491 3.005-2.662 6.469-4.437 6.469-1.04 0-2.029-2.016-2.029-6.31 0-5.721.354-13.866.414-14.651l2.678-.043c1.119-.013 2.132.014 3.622-.063.748-.037 1.468-2.72.696-3.053-.35-.15-2.82-.282-3.8-.302-.824-.019-3.117-.188-3.117-.188l.253-5.978c.041-.476-.575-.72-.928-.87-.86-.363-1.627-.537-2.538-.724-1.258-.26-1.83-.006-1.94 1.056-.166 1.612-.256 6.332-.256 6.332-.923 0-4.077-.18-5-.18-.859 0-1.785 3.69-.599 3.736l5.321.146-.067 11.623c-.868 4.524-3.925 6.968-3.925 6.968.656-2.993-.685-5.24-3.1-7.143-.89-.7-2.647-2.028-4.613-3.482 0 0 1.138-1.122 2.15-3.38.715-1.598.746-3.428-1.01-3.832-2.9-.667-5.293 1.464-6.007 3.739-.552 1.762-.258 3.07.825 4.428.08.1.165.2.254.303-.656 1.262-1.555 2.961-2.317 4.279-2.115 3.66-3.713 6.553-4.92 6.553-.965 0-.952-2.938-.952-5.69 0-2.371.175-5.937.315-9.629.046-1.22-.565-1.916-1.588-2.547-.622-.382-1.95-1.135-2.718-1.135-1.15 0-4.47.157-7.606 9.229-.395 1.144-1.172 3.227-1.172 3.227l.067-10.91c0-.255-.136-.503-.448-.672-.529-.287-1.938-.874-3.195-.874-.598 0-.897.278-.897.833l-.109 17.068c0 1.297.034 2.812.162 3.472.128.659.335 1.201.59 1.521.257.32.553.565 1.041.665.454.094 2.942.413 3.072-.537.155-1.14.16-2.372 1.467-6.968 2.034-7.155 4.685-10.647 5.932-11.887.218-.216.467-.23.455.126l-.366 8.819c-.338 8.912 1.283 10.564 3.6 10.564 1.772 0 4.271-1.761 6.947-6.22l4.457-7.466L54.07 32.6c2.116 2.008 2.81 3.916 2.35 5.725-.353 1.384-1.68 2.812-4.043 1.424-.689-.404-.983-.717-1.675-1.173-.372-.245-.94-.318-1.28-.061-.885.667-1.391 1.515-1.68 2.566-.282 1.021.742 1.561 1.803 2.032.914.406 2.877.775 4.13.817 4.878.165 8.787-2.356 11.507-8.853.487 5.611 2.56 8.787 6.161 8.787 2.409 0 4.822-3.113 5.877-6.174.303 1.247.752 2.333 1.331 3.25 2.775 4.397 8.159 3.45 10.863-.282.836-1.154.963-1.569.963-1.569.395 3.526 3.234 4.757 4.859 4.757 1.82 0 3.7-.86 5.017-3.826.154.322.323.629.507.92 2.775 4.397 8.158 3.45 10.862-.283.115-.157.226-.316.335-.476l.079 2.315-2.489 2.284c-4.168 3.823-7.337 6.724-7.57 10.102-.299 4.308 3.194 5.909 5.837 6.119 2.807.222 5.211-1.329 6.688-3.498 1.3-1.91 2.15-6.02 2.087-10.08l-.098-5.909a47.292 47.292 0 0 0 4.635-6.368c1.656-2.742 3.431-6.425 4.34-9.292 0 0 1.542.014 3.188-.094.526-.035.677.073.58.459-.118.466-2.079 8.032-.289 13.072 1.225 3.45 3.988 4.56 5.625 4.56 1.918 0 3.752-1.447 4.734-3.597.119.24.243.472.378.686 2.775 4.397 8.139 3.445 10.862-.283.614-.841.964-1.568.964-1.568.584 3.648 3.421 4.775 5.046 4.775 1.693 0 3.3-.694 4.604-3.778.054 1.358.14 2.468.275 2.818.083.214.564.483.914.613 1.548.574 3.128.302 3.71.184.404-.082.72-.406.763-1.245.113-2.202.044-5.902.709-8.651 1.12-4.614 2.166-6.404 2.661-7.29.278-.497.591-.579.603-.053.023 1.063.076 4.185.51 8.38.319 3.085.744 4.909 1.072 5.486.934 1.65 2.087 1.728 3.025 1.728.597 0 1.847-.165 1.735-1.215-.054-.512.041-3.676 1.146-8.222.721-2.968 1.924-5.65 2.357-6.631.16-.362.235-.077.232-.022-.091 2.045-.296 8.732.536 12.39 1.13 4.954 4.396 5.508 5.534 5.508 2.429 0 4.416-1.848 5.086-6.71.161-1.171-.078-2.075-.793-2.075"/></svg>
